build/img/icon-vk.svg

<svg width="28" height="26" viewBox="0 0 28 26" fill="none" xmlns="http://www.w3.org/2000/svg">
<path d="M19.6056 15.1271C18.4968 14.1029 18.4176 14.1029 19.368 12.9211C20.556 11.4243 22.1401 9.53349 20.7145 9.53349H18.1008C17.6255 9.53349 17.5463 9.84862 17.3879 10.2425C16.7543 11.7394 15.4871 13.709 15.0119 13.3938C14.5366 13.0787 14.7742 11.897 14.7742 10.0062C14.8534 9.76984 14.7742 9.53349 14.6158 9.37592C14.4574 9.21836 14.2198 9.06079 13.9822 9.06079C13.5862 8.98201 13.1902 8.90323 12.7942 8.90323C11.2893 8.90323 10.2597 9.53349 10.8141 9.61227C11.8437 9.76984 11.7645 11.9758 11.5269 12.9211C11.1309 14.5756 9.54686 11.6606 8.83403 10.1638C8.75483 9.76984 8.43802 9.53349 8.042 9.53349H5.98273C5.66592 9.53349 5.42831 9.61227 5.42831 9.84862C5.42831 10.2425 7.40838 14.1029 9.23005 16.0725C11.0517 17.9632 12.8734 17.8057 14.1406 17.8057C14.299 17.8057 14.4574 17.7269 14.5366 17.6481C14.6158 17.5693 14.695 17.4118 14.695 17.2542C14.695 15.9937 15.1703 15.3634 16.0415 16.23C16.9919 17.1754 17.2295 17.8057 18.4176 17.8057H20.556C21.1105 17.8057 21.2689 17.6481 21.2689 17.4118C21.3481 16.8603 20.3976 15.8361 19.6056 15.1271ZM13.9822 0.000789162C21.3481 0.158354 27.2091 6.06705 27.1299 13.2363C27.0507 20.4055 20.9521 26.0778 13.5862 25.9991C6.14114 25.9203 0.200928 20.1691 0.200928 12.9999C0.280131 5.75192 6.45795 -0.0779935 13.9822 0.000789162Z"/>
</svg>

<svg width="28" height="26" fill="none" xmlns="http://www.w3.org/2000/svg"><path d="M19.606 15.127c-1.11-1.024-1.188-1.024-.238-2.206 1.188-1.497 2.772-3.388 1.347-3.388H18.1c-.476 0-.555.316-.713.71-.634 1.496-1.9 3.466-2.376 3.15-.475-.314-.238-1.496-.238-3.387a.61.61 0 00-.158-.63c-.159-.158-.396-.315-.634-.315-.396-.079-.792-.158-1.188-.158-1.505 0-2.534.63-1.98.71 1.03.157.95 2.363.713 3.308-.396 1.655-1.98-1.26-2.693-2.757-.08-.394-.396-.63-.792-.63h-2.06c-.316 0-.554.078-.554.315 0 .393 1.98 4.254 3.802 6.224 1.822 1.89 3.643 1.733 4.91 1.733a.607.607 0 00.397-.158.6.6 0 00.158-.394c0-1.26.475-1.89 1.346-1.024.95.945 1.189 1.576 2.377 1.576h2.138c.554 0 .713-.158.713-.394.08-.552-.871-1.576-1.663-2.285zM13.982.001C21.348.158 27.21 6.067 27.13 13.236c-.08 7.17-6.178 12.842-13.544 12.763C6.141 25.92.201 20.17.201 13 .28 5.753 6.458-.077 13.982.002z"/></svg>
